components/ui-node-icon/src/csvFile/csvFile.medium.svg

<svg width="24" height="24" viewBox="0 0 24 24" fill="none" xmlns="http://www.w3.org/2000/svg">
  <path fill-rule="evenodd" clip-rule="evenodd" d="M4 5C4 3.34315 5.34315 2 7 2H15L20 7V19C20 20.6569 18.6569 22 17 22H7C5.34315 22 4 20.6569 4 19V5ZM9.54806 13.4079C9.53249 13.6526 9.47908 13.8729 9.38785 14.0688C9.29884 14.2646 9.17868 14.4315 9.02737 14.5694C8.87606 14.7074 8.69582 14.8142 8.48665 14.8899C8.27748 14.9633 8.04606 15 7.79239 15C7.50534 15 7.25056 14.9477 7.02804 14.8431C6.80552 14.7363 6.6186 14.5883 6.46729 14.3992C6.31598 14.2078 6.20027 13.9786 6.12016 13.7116C6.04005 13.4446 6 13.1509 6 12.8304V12.1762C6 11.8536 6.04228 11.5587 6.12684 11.2917C6.21139 11.0247 6.33155 10.7955 6.48732 10.6041C6.64308 10.4128 6.83111 10.2648 7.0514 10.1602C7.27392 10.0534 7.52314 10 7.79907 10C8.06609 10 8.30307 10.0378 8.51001 10.1135C8.71918 10.1891 8.8972 10.2971 9.04406 10.4373C9.19092 10.5774 9.30663 10.7488 9.39119 10.9513C9.47575 11.1538 9.52915 11.3818 9.5514 11.6355H8.61682C8.60792 11.4909 8.58567 11.364 8.55007 11.255C8.51669 11.146 8.46662 11.0559 8.39987 10.9846C8.33534 10.9112 8.253 10.8567 8.15287 10.8211C8.05496 10.7833 7.93703 10.7644 7.79907 10.7644C7.65443 10.7644 7.52871 10.7955 7.4219 10.8578C7.31509 10.9201 7.22608 11.0113 7.15487 11.1315C7.08589 11.2517 7.03471 11.3996 7.00134 11.5754C6.96796 11.749 6.95127 11.947 6.95127 12.1696V12.8304C6.95127 13.3089 7.01802 13.6627 7.15154 13.8919C7.28727 14.1211 7.50089 14.2356 7.79239 14.2356C8.03716 14.2356 8.23075 14.1711 8.37316 14.0421C8.51558 13.9108 8.59457 13.6994 8.61015 13.4079H9.54806ZM12.8024 13.6615C12.8024 13.5748 12.7868 13.4935 12.7557 13.4179C12.7267 13.3422 12.6756 13.2721 12.6021 13.2076C12.5309 13.1409 12.4364 13.0808 12.3184 13.0274C12.2027 12.9717 12.0581 12.9206 11.8845 12.8738C11.6731 12.816 11.4706 12.7437 11.277 12.6569C11.0857 12.5701 10.9166 12.4655 10.7697 12.3431C10.6228 12.2207 10.5049 12.0783 10.4159 11.9159C10.3291 11.7534 10.2857 11.5665 10.2857 11.3551C10.2857 11.1504 10.3291 10.9646 10.4159 10.7977C10.5027 10.6308 10.6228 10.4884 10.7764 10.3705C10.9299 10.2526 11.1113 10.1624 11.3204 10.1001C11.5296 10.0356 11.7566 10.0033 12.0013 10.0033C12.255 10.0033 12.4864 10.0401 12.6956 10.1135C12.907 10.1869 13.0883 10.2904 13.2397 10.4239C13.391 10.5552 13.5089 10.7121 13.5935 10.8945C13.678 11.077 13.7203 11.2773 13.7203 11.4953H12.8057C12.8013 11.3863 12.7813 11.2862 12.7457 11.1949C12.7123 11.1037 12.6611 11.0258 12.5921 10.9613C12.5254 10.8945 12.4408 10.8433 12.3385 10.8077C12.2383 10.7699 12.1204 10.751 11.9846 10.751C11.86 10.751 11.7488 10.7666 11.6509 10.7977C11.5552 10.8267 11.474 10.8689 11.4072 10.9246C11.3405 10.978 11.2893 11.0425 11.2537 11.1182C11.2203 11.1916 11.2036 11.2717 11.2036 11.3585C11.2036 11.4497 11.2259 11.532 11.2704 11.6055C11.3171 11.6789 11.3838 11.7457 11.4706 11.8057C11.5574 11.8636 11.662 11.917 11.7844 11.966C11.909 12.0149 12.0492 12.0605 12.2049 12.1028C12.4275 12.1673 12.6322 12.2463 12.8191 12.3398C13.006 12.4332 13.1662 12.5445 13.2997 12.6736C13.4355 12.8004 13.5401 12.9462 13.6135 13.1108C13.6891 13.2733 13.727 13.4546 13.727 13.6549C13.727 13.8685 13.6836 14.0587 13.5968 14.2256C13.5122 14.3903 13.3943 14.5305 13.243 14.6462C13.0917 14.7597 12.9114 14.8465 12.7023 14.9065C12.4931 14.9644 12.265 14.9933 12.018 14.9933C11.8645 14.9933 11.7109 14.9789 11.5574 14.9499C11.4061 14.9232 11.2603 14.881 11.1202 14.8231C10.9822 14.7652 10.8531 14.6929 10.733 14.6061C10.6128 14.5194 10.5082 14.4181 10.4192 14.3024C10.3324 14.1867 10.2635 14.0554 10.2123 13.9085C10.1633 13.7617 10.1389 13.5992 10.1389 13.4212H11.0601C11.0645 13.5681 11.0901 13.6938 11.1368 13.7984C11.1836 13.903 11.2481 13.9887 11.3304 14.0554C11.415 14.1222 11.5151 14.1711 11.6308 14.2023C11.7488 14.2334 11.8778 14.249 12.018 14.249C12.1426 14.249 12.2528 14.2345 12.3485 14.2056C12.4464 14.1767 12.5287 14.1366 12.5955 14.0854C12.6622 14.0343 12.7134 13.9731 12.749 13.9019C12.7846 13.8284 12.8024 13.7483 12.8024 13.6615ZM16.9112 10.0701L15.9933 13.5714L15.0854 10.0701H14.0507L15.5194 14.9299H16.474L17.9459 10.0701H16.9112Z" fill="var(--tbl--colors--icons--transformation--primary)"/>
  <path d="M20 7L15 2V5C15 6.10457 15.8954 7 17 7H20Z" fill="white" fill-opacity="0.5"/>
</svg>

<svg xmlns="http://www.w3.org/2000/svg" width="24" height="24" fill="none" viewBox="0 0 24 24">
  <path fill="var(--tbl--colors--icons--transformation--primary)" fill-rule="evenodd" d="M4 5a3 3 0 0 1 3-3h8l5 5v12a3 3 0 0 1-3 3H7a3 3 0 0 1-3-3V5Zm5.548 8.408a1.827 1.827 0 0 1-.16.66 1.519 1.519 0 0 1-.901.822c-.21.073-.44.11-.695.11-.287 0-.541-.052-.764-.157a1.588 1.588 0 0 1-.56-.444 2.042 2.042 0 0 1-.348-.687c-.08-.267-.12-.561-.12-.882v-.654c0-.322.042-.617.127-.884.084-.267.205-.496.36-.688a1.61 1.61 0 0 1 .564-.444c.223-.107.472-.16.748-.16.267 0 .504.038.711.114a1.5 1.5 0 0 1 .534.323c.147.14.263.312.347.514.085.203.138.43.16.684h-.934a1.534 1.534 0 0 0-.067-.38.68.68 0 0 0-.15-.27.58.58 0 0 0-.247-.164.984.984 0 0 0-.354-.057.735.735 0 0 0-.377.094.751.751 0 0 0-.267.274c-.07.12-.12.268-.154.443-.033.174-.05.372-.05.595v.66c0 .479.067.833.2 1.062.136.23.35.344.641.344.245 0 .439-.065.581-.194.143-.131.222-.343.237-.634h.938Zm3.254.254a.634.634 0 0 0-.046-.244.538.538 0 0 0-.154-.21 1.038 1.038 0 0 0-.284-.18 2.536 2.536 0 0 0-.434-.154 4.172 4.172 0 0 1-.607-.217 2.22 2.22 0 0 1-.507-.314 1.476 1.476 0 0 1-.354-.427 1.172 1.172 0 0 1-.13-.56c0-.206.043-.391.13-.558.087-.167.207-.31.36-.428.154-.117.335-.208.544-.27a2.3 2.3 0 0 1 .681-.097c.254 0 .485.037.695.11.211.074.392.177.544.31a1.391 1.391 0 0 1 .48 1.072h-.914a.924.924 0 0 0-.06-.3.657.657 0 0 0-.407-.387 1.001 1.001 0 0 0-.354-.057 1.1 1.1 0 0 0-.334.047.686.686 0 0 0-.244.127.54.54 0 0 0-.137.68c.047.074.114.14.2.2.087.059.192.112.314.161.125.049.265.095.42.137.223.064.428.143.615.237.187.093.347.204.48.334.136.126.241.272.315.437.075.162.113.344.113.544 0 .213-.043.404-.13.57a1.235 1.235 0 0 1-.354.421 1.65 1.65 0 0 1-.54.26c-.21.058-.438.087-.685.087a2.476 2.476 0 0 1-.898-.17 1.94 1.94 0 0 1-.387-.217 1.502 1.502 0 0 1-.314-.304 1.442 1.442 0 0 1-.207-.393 1.532 1.532 0 0 1-.073-.488h.921c.005.147.03.273.077.377.047.105.111.19.193.257a.825.825 0 0 0 .3.147c.119.031.248.047.388.047.125 0 .235-.014.33-.043a.752.752 0 0 0 .247-.12.526.526 0 0 0 .154-.184.544.544 0 0 0 .053-.24Zm4.11-3.592-.919 3.501-.908-3.5h-1.034l1.468 4.859h.955l1.472-4.86H16.91Z" clip-rule="evenodd"/>
  <path fill="#fff" fill-opacity=".5" d="m20 7-5-5v3a2 2 0 0 0 2 2h3Z"/>
</svg>
